aliba_games/img/icon-stripe.svg

<svg width="34" height="14" viewBox="0 0 34 14" fill="none" xmlns="http://www.w3.org/2000/svg">
<path fill-rule="evenodd" clip-rule="evenodd" d="M33.9999 7.2339C33.9999 4.84143 32.8411 2.95361 30.6262 2.95361C28.4019 2.95361 27.0562 4.84143 27.0562 7.21521C27.0562 10.0282 28.6449 11.4488 30.9252 11.4488C32.0374 11.4488 32.8785 11.1964 33.514 10.8413V8.97218C32.8785 9.28994 32.1495 9.48619 31.2243 9.48619C30.3178 9.48619 29.514 9.16844 29.4112 8.06566H33.9812C33.9812 7.94417 33.9999 7.4582 33.9999 7.2339ZM29.3832 6.34607C29.3832 5.29002 30.0281 4.85077 30.6168 4.85077C31.1869 4.85077 31.7944 5.29002 31.7944 6.34607H29.3832Z" fill="white"/>
<path fill-rule="evenodd" clip-rule="evenodd" d="M23.4487 2.95361C22.5328 2.95361 21.9441 3.38351 21.617 3.68257L21.4955 3.10314H19.4395V14.0001L21.7759 13.5048L21.7852 10.86C22.1216 11.103 22.617 11.4488 23.4394 11.4488C25.1122 11.4488 26.6356 10.103 26.6356 7.14045C26.6262 4.43022 25.0842 2.95361 23.4487 2.95361ZM22.888 9.39274C22.3366 9.39274 22.0095 9.19648 21.7852 8.95349L21.7759 5.48627C22.0188 5.21525 22.3553 5.02834 22.888 5.02834C23.7384 5.02834 24.3272 5.98159 24.3272 7.20586C24.3272 8.45818 23.7478 9.39274 22.888 9.39274Z" fill="white"/>
<path fill-rule="evenodd" clip-rule="evenodd" d="M16.2245 2.40182L18.5702 1.89716V0L16.2245 0.495317V2.40182Z" fill="white"/>
<path d="M18.5704 3.11182H16.2246V11.2892H18.5704V3.11182Z" fill="white"/>
<path fill-rule="evenodd" clip-rule="evenodd" d="M13.7107 3.8038L13.5611 3.11223H11.5425V11.2896H13.8789V5.74769C14.4303 5.02808 15.3648 5.15891 15.6545 5.26172V3.11223C15.3555 3.00008 14.2621 2.79448 13.7107 3.8038Z" fill="white"/>
<path fill-rule="evenodd" clip-rule="evenodd" d="M9.03772 1.08398L6.75739 1.56996L6.74805 9.05579C6.74805 10.4389 7.78541 11.4576 9.16856 11.4576C9.93491 11.4576 10.4956 11.3174 10.804 11.1492V9.25205C10.505 9.37354 9.02838 9.80344 9.02838 8.42029V5.1026H10.804V3.11198H9.02838L9.03772 1.08398Z" fill="white"/>
<path fill-rule="evenodd" clip-rule="evenodd" d="M2.72015 5.48627C2.72015 5.12179 3.01921 4.98161 3.51453 4.98161C4.22479 4.98161 5.12197 5.19656 5.83224 5.57973V3.38351C5.05655 3.07511 4.29021 2.95361 3.51453 2.95361C1.61737 2.95361 0.355713 3.94425 0.355713 5.59842C0.355713 8.17781 3.90704 7.7666 3.90704 8.87873C3.90704 9.30863 3.53322 9.44881 3.00987 9.44881C2.23418 9.44881 1.24355 9.13106 0.458514 8.70116V10.9254C1.32766 11.2992 2.20614 11.4581 3.00987 11.4581C4.95375 11.4581 6.29017 10.4955 6.29017 8.82265C6.28083 6.03766 2.72015 6.53298 2.72015 5.48627Z" fill="white"/>
</svg>

<svg width="34" height="14" fill="none" xmlns="http://www.w3.org/2000/svg"><path fill-rule="evenodd" clip-rule="evenodd" d="M34 7.234c0-2.393-1.159-4.28-3.374-4.28-2.224 0-3.57 1.887-3.57 4.261 0 2.813 1.589 4.234 3.87 4.234 1.111 0 1.953-.253 2.588-.608V8.972c-.636.318-1.364.514-2.29.514-.906 0-1.71-.318-1.813-1.42h4.57c0-.122.019-.608.019-.832zm-4.617-.888c0-1.056.645-1.495 1.234-1.495.57 0 1.177.439 1.177 1.495h-2.41zM23.449 2.954c-.916 0-1.505.43-1.832.729l-.122-.58H19.44V14l2.337-.495.01-2.645c.336.243.831.589 1.653.589 1.673 0 3.197-1.346 3.197-4.309-.01-2.71-1.552-4.186-3.187-4.186zm-.561 6.439c-.551 0-.879-.197-1.103-.44l-.01-3.467c.244-.27.58-.458 1.113-.458.85 0 1.44.954 1.44 2.178 0 1.252-.58 2.187-1.44 2.187zM16.224 2.402l2.346-.505V0l-2.346.495v1.907z" fill="#fff"/><path d="M18.57 3.112h-2.345v8.177h2.345V3.112z" fill="#fff"/><path fill-rule="evenodd" clip-rule="evenodd" d="M13.71 3.804l-.149-.692h-2.018v8.178h2.336V5.748c.551-.72 1.486-.59 1.776-.486v-2.15c-.3-.112-1.393-.318-1.944.692zM9.038 1.084l-2.28.486-.01 7.486c0 1.383 1.037 2.402 2.42 2.402.767 0 1.328-.14 1.636-.309V9.252c-.299.122-1.776.551-1.776-.832V5.103h1.776V3.112H9.028l.01-2.028zM2.72 5.486c0-.364.3-.504.795-.504.71 0 1.607.215 2.317.598V3.384a6.163 6.163 0 0 0-2.317-.43c-1.898 0-3.16.99-3.16 2.644 0 2.58 3.552 2.169 3.552 3.28 0 .43-.374.57-.897.57-.776 0-1.766-.317-2.551-.747v2.224c.869.374 1.747.533 2.55.533 1.945 0 3.281-.963 3.281-2.635-.01-2.785-3.57-2.29-3.57-3.337z" fill="#fff"/></svg>
